X: 8373
T: Courting Them All
R: reel
M: 4/4
K: Dmajor
(3Bcd AF d2fe|dAFA GEE2|dAFA d2ef|gbag fdd2:|
a2fd adfd|a2fa bgeg|a2fd adfd|gbag fdd2|
a2fd adfd|a2fa bgeg|a2(3gag (3fgf (3efe|B2ag fdd2|

